X:1
T: Vals efter Vilhelm Hedlund
C: efter Edvard S\"oderlund
Z: John Chambers <jc:trillian.mit.edu>
M: 3/4
K: Dm
L: 1/8
A,2 |\
"Dm"A,2 D2 F2 | A4 d2 | (3ded ^c2 d2 | "A7"e4 A2 |\
"Dm"(3fgf e2 d2 | "A7"^c4 A2 | "Gm"(3BcB A2 G2 | "A7"A4 A,2 |
y4 |\
"Dm"A,2 D2 F2 | A4 d2 | (3ded ^c2 d2 | "A7"e4 A2 |\
"Dm"(3fgf e2 d2 | "A7"^c4 A2 | (3FGF E2 ^C2 | "Dm"D4 :|
|: "(C7)"c2 |\
"F"c2 aa a2 | c2 aa a2 | a2 b3 a | "C7"a4 g2 |\
B2 gg g2 | B2 gg g2 | "A7"g2 a3 g | "Dm"g4 f2 |
y4 |\
"Dm"A2 ff f2 | A2 ff f2 | "Gm"f2 g3 f | e4 d2 |\
"A7"^c3 dc=B | A2 ^c2 e2 | (3fgf e2 ^c2 | "Dm"d4 :|
